X:439
T:Thw Lonesome River
C:Stanley Brothers
N:Pubilshed in " Bluegrass and Old-Time Mandolin" by John Baldry Transcribed by Kim Davis
R:bluegrass
L:1/8
Q:1/4=176
M:3/4
K:E
z4 EE | E2 G2 A2 | (3"E"[eB][eB][eB] (3[eB][eB][eB] (3[eB][eB][eB] | (3[eB][eB][eB] (3[eB][eB][eB] (3[eB][eB][eB] | 
[e2B2] [e2B2] ef | =gf eB AB | (3[GE][GE][GE] (3[GE][GE][GE] (3[GE][GE][GE] | 
(3[GE][GE][GE] (3[GE][GE][GE] (3[GE][GE][GE] | "E7"(3[G=D][GD][GD] (3[GD][GD][GD] DD | 
=D2 G2 B2 | (3"A"[ae][ae][ae] (3[ae][ae][ae] (3[ae][ae][ae] | [a2e2] [a2e2] [a2e2] | 
[ae][af] [a2e2] [e2=d2] | (3"E"[eB][eB][eB] (3[eB][eB][eB] (3[eB][eB][eB] | (3[eB][eB][eB] (3[eB][eB][eB] (3[eB][eB][eB] | 
[e2B2] [e2B2] GG | G2 A2 B2 | (3"A"[ae][ae][ae] (3[ae][ae][ae] (3[ae][ae][ae] | 
[a2e2] [a2e2] ef | =gf eB AB | {=G}"E"^G2 (3[GE][GE][GE] (3[GE][GE][GE] | (3[GE][GE][GE] (3[GE][GE][GE] (3[GE][GE][GE] | 
[G2E2] [G2E2] EE | E2 G2 E2 | (3"B"[BF][BF][BF] (3[BF][BF][BF] (3[BF][BF][BF] | 
(3[BF][BF][BF] (3[BF][BF][BF] (3[BF][BF][BF] | [B2F2] [B2F2] [B2F2] | [BF][B=G] [B2G2] [B2F2] | 
"E"(3[BE][BE][BE] (3[BE][BE][BE] (3[BE][BE][BE] | (3[BE][BE][BE] (3[BE][BE][BE] (3[EC][EC][EC] | 
[E2B,2] [E2B,2] [EB,][EB,] | z6 | 


